assets/pandas/plain.svg

<svg viewBox="0 0 128 128" xmlns="http://www.w3.org/2000/svg"><path d="m90.248 0v96.555h13.988v-96.555zm-44.012 7.566v29.05h13.989v-29.051h-13.989zm-22.472 23.88v96.554h13.988v-96.555h-13.988zm44.482.034v29.047h13.988v-29.047zm-22.01 13.612v13.705h13.989v-13.705zm0 22.143v29.045h13.989v-29.046h-13.989zm22.01 1.777v13.705h13.988v-13.705zm0 22.19v29.046h13.988v-29.047h-13.988z" fill="#130754"/></svg>

<svg xmlns="http://www.w3.org/2000/svg" viewBox="0 0 128 128"><path fill="#130754" d="M90.248 0v96.555h13.988V0zM46.236 7.566v29.05h13.989V7.565zm-22.472 23.88V128h13.988V31.445H23.764zm44.482.034v29.047h13.988V31.48zm-22.01 13.612v13.705h13.989V45.092zm0 22.143V96.28h13.989V67.234zm22.01 1.777v13.705h13.988V69.012zm0 22.19v29.046h13.988V91.201H68.246z"/></svg>
